static/img/device/cable-power-bidirect.svg

<svg xmlns="http://www.w3.org/2000/svg" width="451" height="61" fill="none" viewBox="0 0 451 61"><g clip-path="url(#a)"><path fill="#fff" d="M450.23 0H0v60.53h450.23z"/><path stroke="#e60012" stroke-linecap="square" stroke-linejoin="round" stroke-width="3.78" d="M391.01 24.62H33.28"/><path stroke="#231815" stroke-linecap="square" stroke-linejoin="round" stroke-width="3.78" d="M391.01 35.24H33.28"/><path stroke="#fff" stroke-miterlimit="10" stroke-width=".88" d="M31.39 24.62h361.5M31.39 35.24h361.5"/><path fill="#fff" d="M33.28 16.32h-3.6v27.89h3.6z"/><path stroke="#fff" stroke-linecap="round" stroke-linejoin="round" stroke-width=".1" d="M33.28 16.32h-3.6v27.89h3.6z"/><path fill="#fff" d="M29.68 19.76v-3.44h3.6v27.89h-3.6v-3.29H9V19.76z"/><path stroke="#000" stroke-linecap="round" stroke-linejoin="round" stroke-width=".33" d="M26.24 19.76v1.8H17.7v6.89h8.54v3.3H17.7v7.04h8.54v1.65M12.45 19.76v3.45h3.45v3.45h-3.45v7.04h3.45v3.29h-3.45v3.45M29.68 40.92V19.76"/><path stroke="#000" stroke-linecap="round" stroke-linejoin="round" d="M29.68 19.76v-3.44h3.6v27.89h-3.6v-3.29H9V19.76z"/><path stroke="#000" stroke-linecap="round" stroke-linejoin="round" stroke-width=".33" d="M408.84 16.42h-15.88v27.69h15.88M408.84 44.11c2.4 0 4.34 1.94 4.34 4.34v3.07h28.04v-5.23a2.2 2.2 0 0 0-2.2-2.2h-3.66V16.44h3.66a2.2 2.2 0 0 0 2.2-2.2V9.01h-28.04v3.07c0 2.4-1.94 4.34-4.34 4.34"/><path stroke="#000" stroke-linecap="round" stroke-linejoin="round" stroke-width=".33" d="M415.76 19.88h-7.63v3.88h7.63zM415.76 28.33h-7.63v3.88h7.63zM415.76 36.77h-7.63v3.88h7.63zM395.21 16.42v27.69M435.36 44.09V16.44h1.19l-1.85-1.83h-2.15l-2.82 1.84h-12.01V44.2h12.01l2.82 1.84h2.15l1.97-1.95z"/><path stroke="#000" stroke-linecap="round" stroke-linejoin="round" stroke-width=".33" d="M417.73 19.63h12.31c1.23 0 2.22.99 2.22 2.22s-.99 2.22-2.22 2.22h-12.31M417.73 36.46h12.31c1.23 0 2.22.99 2.22 2.22s-.99 2.22-2.22 2.22h-12.31"/><path stroke="#000" stroke-linecap="round" stroke-linejoin="round" d="M439.02 9h-25.84v3.07c0 2.4-1.94 4.34-4.34 4.34h-15.89v27.7h15.89c2.4 0 4.34 1.94 4.34 4.34v3.07h28.04v-5.23a2.2 2.2 0 0 0-2.2-2.2h-3.66V16.44h3.66a2.2 2.2 0 0 0 2.2-2.2V9.01h-2.2z"/></g><defs><clipPath id="a"><path fill="#fff" d="M0 0h450.23v60.53H0z"/></clipPath></defs></svg>

<svg width="451" height="61" viewBox="0 0 451 61" fill="none" xmlns="http://www.w3.org/2000/svg">
<g clip-path="url(#clip0_50_1966)">
<path d="M450.23 0H0V60.53H450.23V0Z" fill="white"/>
<path d="M391.01 24.62H33.28" stroke="#E60012" stroke-width="3.78" stroke-linecap="square" stroke-linejoin="round"/>
<path d="M391.01 35.24H33.28" stroke="#231815" stroke-width="3.78" stroke-linecap="square" stroke-linejoin="round"/>
<path d="M31.39 24.62H392.89" stroke="white" stroke-width="0.88" stroke-miterlimit="10"/>
<path d="M31.39 35.24H392.89" stroke="white" stroke-width="0.88" stroke-miterlimit="10"/>
<path d="M33.28 16.32H29.68V44.21H33.28V16.32Z" fill="white"/>
<path d="M33.28 16.32H29.68V44.21H33.28V16.32Z" stroke="white" stroke-width="0.1" stroke-linecap="round" stroke-linejoin="round"/>
<path d="M29.68 19.76V16.32H33.28V44.21H29.68V40.92H9V19.76H29.68Z" fill="white"/>
<path d="M26.24 19.76V21.56H17.7V28.45H26.24V30.1V31.75H17.7V38.79H26.24V40.44" stroke="black" stroke-width="0.33" stroke-linecap="round" stroke-linejoin="round"/>
<path d="M12.45 19.76V23.21H15.9V26.66H12.45V30.1V33.7H15.9V36.99H12.45V40.44" stroke="black" stroke-width="0.33" stroke-linecap="round" stroke-linejoin="round"/>
<path d="M29.68 40.92V19.76" stroke="black" stroke-width="0.33" stroke-linecap="round" stroke-linejoin="round"/>
<path d="M29.68 19.76V16.32H33.28V44.21H29.68V40.92H9V19.76H29.68Z" stroke="black" stroke-linecap="round" stroke-linejoin="round"/>
<path d="M408.84 16.42H392.96V44.11H408.84" stroke="black" stroke-width="0.33" stroke-linecap="round" stroke-linejoin="round"/>
<path d="M408.84 44.11C411.24 44.11 413.18 46.05 413.18 48.45V51.52H441.22V46.29C441.22 45.08 440.24 44.09 439.02 44.09H435.36V16.44H439.02C440.23 16.44 441.22 15.46 441.22 14.24V9.00999H413.18V12.08C413.18 14.48 411.24 16.42 408.84 16.42" stroke="black" stroke-width="0.33" stroke-linecap="round" stroke-linejoin="round"/>
<path d="M415.76 19.88H408.13V23.76H415.76V19.88Z" stroke="black" stroke-width="0.33" stroke-linecap="round" stroke-linejoin="round"/>
<path d="M415.76 28.33H408.13V32.21H415.76V28.33Z" stroke="black" stroke-width="0.33" stroke-linecap="round" stroke-linejoin="round"/>
<path d="M415.76 36.77H408.13V40.65H415.76V36.77Z" stroke="black" stroke-width="0.33" stroke-linecap="round" stroke-linejoin="round"/>
<path d="M395.21 16.42V44.11" stroke="black" stroke-width="0.33" stroke-linecap="round" stroke-linejoin="round"/>
<path d="M435.36 44.09V16.44H436.55L434.7 14.61H432.55L429.73 16.45H417.72V27.94V32.71V44.2H429.73L432.55 46.04H434.7L436.67 44.09H435.36Z" stroke="black" stroke-width="0.33" stroke-linecap="round" stroke-linejoin="round"/>
<path d="M417.73 19.63H430.04C431.27 19.63 432.26 20.62 432.26 21.85C432.26 23.08 431.27 24.07 430.04 24.07H417.73" stroke="black" stroke-width="0.33" stroke-linecap="round" stroke-linejoin="round"/>
<path d="M417.73 36.46H430.04C431.27 36.46 432.26 37.45 432.26 38.68C432.26 39.91 431.27 40.9 430.04 40.9H417.73" stroke="black" stroke-width="0.33" stroke-linecap="round" stroke-linejoin="round"/>
<path d="M439.02 9H413.18V12.07C413.18 14.47 411.24 16.41 408.84 16.41H392.95V44.11H408.84C411.24 44.11 413.18 46.05 413.18 48.45V51.52H441.22V46.29C441.22 45.08 440.24 44.09 439.02 44.09H435.36V16.44H436.55H439.02C440.23 16.44 441.22 15.46 441.22 14.24V9.01H439.02V9Z" stroke="black" stroke-linecap="round" stroke-linejoin="round"/>
</g>
<defs>
<clipPath id="clip0_50_1966">
<rect width="450.23" height="60.53" fill="white"/>
</clipPath>
</defs>
</svg>
